X:1
T:Accipite et manducate
T:Jan Tollius
T:Accipite et manducate
C:Jan Tollius
%%score [ 1 2 3 ]
L:1/8
Q:1/4=60
M:4/4
K:Bb
V:1 treble nm="Soprano" snm="S"
V:2 treble-8 nm="Tenor" snm="T"
V:3 bass nm="Bass" snm="B"
V:1
 z2 z B e>d c2 | z F B>A GC G/F/G/A/ | =BccB c4 | z B e>d c2 z F | B>A GB c/B/c/d/ e/d/e/f/ | %5
w: Ac- ci- pi- te|Ac- ci- pi- te et man- * * *|* du- ca- * te:|Ac- ci- pi- te Ac-|ci- pi- te et man- * * * * * * *|
 gc g2 c4 | z4 A3 A | A2 B2 A4 | G2 =Bc d2 cB | c4 =B4 | de f2 ed c2 | d2 GA B2 FG | %12
w: * du- ca- te:|Hoc est|cor- pus me-|um, quod pro vo- bis tra-|de- tur:|quod pro vo- bis tra- de-|tur: quod pro vo- bis tra-|
 A3/2G/4F/4 G2 F2 z A | B>B A2 z d d2 | AA =B>B B>c d>c | B2 A2 z4 | z2 z G A>A G2 | z2 z c c2 AA | %18
w: de- * * * tur: Hoc|fa- ci- te in me-|am com- me- mo- ra- ti- o- *|* nem.|Hoc fa- ci- te|in me- am com-|
 A>A A>B c3/2B/4A/4 G2 | A8 || c2 cc A>B cc | dc/B/ AA G2 z2 | z4 z e2 d- | dcc=B c4 | %24
w: me- mo- ra- ti- o- * * *|nem.|Hic ca- lix no- vum tes- ta-|men- * * * tum est|in me-|* o san- gui- ne:|
 c2 cc A>B cc | dc/B/ AA G2 z2 | z4 z e2 d- | dcc=B c3 G | A>B cd c4 | z F B>c d e2 d | %30
w: Hic ca- lix no- vum tes- ta-|men- * * * tum est|in me-|* o san- gui- ne: Hoc|fa- * * ci- te|Hoc fa- * * * ci-|
 e2 dd/d/ dc/B/ d2 | c2 z d d2 cA | B>c dd dc/B/ AG | A B2 A B4 | ff/f/ fe/d/ f2 B2 | %35
w: te quo- ti- es- cum- que bi- be-|tis, in me- am com-|me- mo- ra- ti- o- * * * *|* * * nem.|quo- ti- es- cum- que bi- be- tis,|
 z f f2 ee d>e | ff fe/d/ c>B c2 | d8 |] %38
w: in me- am com- me- mo-|ra- ti- o- * * * * *|nem.|
V:2
 B4 c4 | d4 e3 e | dc d2 c4 | z2 z e _a>g f2 | z B e>d cF c/B/c/d/ | =effe f4 | z2 f3 f =e2 | %7
w: Ac- ci-|pi- te et|man- du- ca- te:|Ac- ci- pi- te|Ac- ci- pi- te et man- * * *|* * du- ca- te:|Hoc est cor-|
 ^f2 g4 f2 | g4 de f2 | ed c2 d2 GA | B2 AB c/B/ B2 A | B2 Bc d4 | cf =e2 f4 | z g ^f>f g4 | %14
w: pus me- *|um, quod pro vo-|bis tra- de- tur: quod pro|vo- bis tra- de- * * *|tur: quod pro vo-|bis tra- de- tur:|Hoc fa- ci- te|
 z d d2 gg f>f | ff f>e d2 g2 | z f =e>e f2 z c | c2 ff =e>e ff | f3/2e/4d/4 c>d =e f2 e | f8 || %20
w: in me- am com- me- mo-|ra- ti- o- * * nem.|Hoc fa- ci- te in|me- am com- me- mo- ra- ti-|o- * * * * * * *|nem.|
 z8 | f2 ff d>e ff | gf/e/ dd c g2 f- | fe d>d c4 | z8 | f2 ff d>e ff | gf/e/ dd c g2 f- | %27
w: |Hic ca- lix no- vum tes- ta-|men- * * * tum est in me-|* o san- gui- ne:||Hic ca- lix no- vum tes- ta-|men- * * * tum est in me-|
 fe d>d c4 | z c f>g a b2 a | b2 z g gf/e/ f>f | e2 z2 ff/f/ fe/d/ | f2 B2 z f f2 | %32
w: * o san- gui- ne:|Hoc fa- * * * ci-|te Hoc fa- * * * ci-|te quo- ti- es- cum- que bi-|be- tis, in me-|
 ee d>e ff fe/d/ | c>B c2 d2 dd/d/ | dc/B/ d2 c2 z d | d2 cA B>c dd | dc/B/ AG A B2 A | B8 |] %38
w: am com- me- mo- ra- ti- o- * *|* * * nem. quo- ti- es-|cum- que bi- be- tis, in|me- am com- me- mo- ra- ti-|o- * * * * * * *|nem.|
V:3
 z B,, E,>D, C,2 z F,, | B,,>A,, G,,B,, C,/B,,/C,/D,/ E,/D,/E,/F,/ | G,C, G,2 C,4 | E,4 F,4 | %4
w: Ac- ci- pi- te Ac-|ci- pi- te et man- * * * * * * *|* du- ca- te:|Ac- ci-|
 G,4 _A,3 A, | G,F, G,2 F,4 | D,3 D, D,2 C,2 | D,8 | G,,2 G,A, B,2 F,G, | _A,4 G,4 | z8 | %11
w: pi- te et|man- du- ca- te:|Hoc est cor- pus|me-|um, quod pro vo- bis tra-|de- tur:||
 z4 G,,A,, B,,2 | F,,F,, C,2 F,,4 | z4 z2 z G, | ^F,>F, G,2 z2 z B, | B,2 F,F, G,>G, G,>A, | %16
w: quod pro vo-|bis tra- de- tur:|Hoc|fa- ci- te in|me- am com- me- mo- ra- ti-|
 B,>A, G,2 F,2 z2 | z F, F,2 C,C, D,>D, | D,>E, F,3/2E,/4D,/4 C,4 | F,,8 || z4 F,2 F,F, | %21
w: o- * * nem.|in me- am com- me- mo-|ra- ti- o- * * *|nem.|Hic ca- lix|
 D,>E, F,F, G,F,/E,/ D,D, | C,2 G,2 C2 F,2 | G,3 G, C,4 | z4 F,2 F,F, | D,>E, F,F, G,F,/E,/ D,D, | %26
w: no- vum tes- ta- men- * * * tum|est in me- o|san- gui- ne:|Hic ca- lix|no- vum tes- ta- men- * * * tum|
 C,2 G,2 C2 F,2 | G,3 G, C,2 z C, | F,>G, A,B, F,3 F,, | B,,>C, D,E, B,,4 | %30
w: est in me- o|san- gui- ne: Hoc|fa- * * ci- te Hoc|fa- * * ci- te|
 z2 B,B,/B,/ B,A,/G,/ B,2 | F,2 z B, B,2 A,A, | G,>A, B,B, B,A,/G,/ F,2- | F,4 B,,2 B,B,/B,/ | %34
w: quo- ti- es- cum- que bi- be-|tis, in me- am com-|me- mo- ra- ti- o- * * *|* nem. quo- ti- es-|
 B,A,/G,/ B,2 F,2 z B, | B,2 A,A, G,>A, B,B, | B,A,/G,/ F,6 | B,,8 |] %38
w: cum- que bi- be- tis, in|me- am com- me- mo- ra- ti-|o- * * *|nem.|

